X: 882
T: Shamrock Schottische
C:Traditional
B: jims roots
M:4/4
L:1/8
R: Schottische
Q: 1/4=100
K:D
V:1 
(3[Aa]aa |:"D"bafd A2A^A | "G"Bgfg B2cB | "A"ABcd ecBA | "D"dfdB A2 (3[Aa]aa |
"D"ba[fA]d A^GA^A | "G"Bgfg BAcB | "A"Aec'b agfe |[1 "D"d2f2 [D2d](3[Aa]aa :|[2 "D"[d2f2 [D2d][D2d]||
     "G"BGBG cG^c2 | (3[Dd]d[DB] dg bgdA | "C"cBce "D"abag | fdef "G"g2[G,2D2B2g2] ||
"G"[G,2D2B2][G,2D2B2] (3[G,Dc]cc ^cc | dBdg bgdB | "C"cBce "D"abag | fdef "G"gedc |
"G"BGBG cG^c | (3[Dd]d[DB] dg  bgdA | "C"cBce "D"abag | fdef "G"g2[G,2D2B2g2] |]
V:K:G 
"G"BGBG cG^c2 | (3[Dd]d[DB] dg bgdA | "C"cBce "D"abag | fdef "G"gedc |
% abcbook-tune_id 6298c287691375c3f858b38a


% abcbook-boost 0
% abcbook-tablature 
% abcbook-transpose 
% abcbook-lastupdated 1654178440293
% abcbook-soundfonts 
% abcbook-repeats 1


